assets/icons/qvision/text_rotation_down.svg

<svg xmlns="http://www.w3.org/2000/svg" height="24" viewBox="0 0 24 24" width="24"><path d="M0 0h24v24H0z" fill="none"/><path d="M21 12v-1.5L10 5.75v2.1l2.2.9v5l-2.2.9v2.1L21 12zm-7-2.62l5.02 1.87L14 13.12V9.38zM6 19.75l3-3H7V4.25H5v12.5H3l3 3z"/></svg>

<svg width="24" height="24" viewBox="0 0 24 24" fill="none" xmlns="http://www.w3.org/2000/svg">
<g clip-path="url(#clip0_147_4861)">
<path d="M21 12V10.5L10 5.75V7.85L12.2 8.75V13.75L10 14.65V16.75L21 12ZM14 9.38L19.02 11.25L14 13.12V9.38ZM6 19.75L9 16.75H7V4.25H5V16.75H3L6 19.75Z" fill="#323232"/>
</g>
<defs>
<clipPath id="clip0_147_4861">
<rect width="24" height="24" fill="white"/>
</clipPath>
</defs>
</svg>
